packages/vibrant-icons/assets/icons/Hashtag/Fill.svg

<svg width="24" height="24" viewBox="0 0 24 24" fill="none" xmlns="http://www.w3.org/2000/svg">
<path fill-rule="evenodd" clip-rule="evenodd" d="M9.84423 6.90002L10.5 2.25H8.25L7.59423 6.90002H3.25L3.125 9.10002H7.28397L6.46602 14.9H2.375L2.25 17.1H6.15577L5.5 21.75H7.75L8.40577 17.1H14.1558L13.5 21.75H15.75L16.4058 17.1H20.75L20.875 14.9H16.716L17.534 9.10002H21.625L21.75 6.90002H17.8442L18.5 2.25H16.25L15.5942 6.90002H9.84423ZM14.466 14.9L15.284 9.10002H9.53397L8.71602 14.9H14.466Z" fill="#0C0C0C"/>
</svg>

<svg xmlns="http://www.w3.org/2000/svg" width="24" height="24" fill="none"><path fill="#0C0C0C" fill-rule="evenodd" d="m9.844 6.9.656-4.65H8.25L7.594 6.9H3.25l-.125 2.2h4.159l-.818 5.8H2.375l-.125 2.2h3.906L5.5 21.75h2.25l.656-4.65h5.75l-.656 4.65h2.25l.656-4.65h4.344l.125-2.2h-4.159l.818-5.8h4.091l.125-2.2h-3.906l.656-4.65h-2.25l-.656 4.65zm4.622 8 .818-5.8h-5.75l-.818 5.8z" clip-rule="evenodd"/></svg>
